X:1
T:Solveigs Lied
T:Партитура
T:Solveigs Lied
%%score 1 { ( 2 4 ) | 3 }
L:1/8
Q:1/4=55
M:4/4
K:Eb
V:1 treble transpose=-9 nm="Альтовый саксофон" snm="Альт. Сакс."
V:2 treble nm="Piano" snm="Pno"
V:4 treble 
V:3 bass 
V:1
[K:C] z8 | z4 z2 z E || A2 Bc d2 ef | (fe)ec A2 Ac |[M:2/4] (cB)B^G |[M:4/4] E6 z E | A2 Bc d2 ef | %7
w: |мі|ля сі до ре мі фа|фа мі мі до ля ля до|до сі сі #соль|мі мі|ля сі до ре мі фа|
 (fe)ec A2 Ac |[M:2/4] (cB)BG |[M:4/4] E6 z E | (E^G)Bc A2 (e^d) | B2 (d^c) A3 A | %12
w: фа мі мі до ля ля до|до сі сі соль|мі мі|мі #соль сі до ля мі #ре|сі ре #до ля ля|
 (cB)[Q:1/4=50]BA[Q:1/4=40] e3[Q:1/4=55] E | (E^G)Bc A2 (e^d) | BB(d^c) A3 A | c3 B B3 A | A6 z |] %17
w: до сі сі ля мі мі|мі #соль сі до ля мі #ре|сі сі ре #до ля ля|до сі сі ля|ля|
V:2
 z2 [EGc]2 z2 [EGc]2 | z2 [EGc]2 z2 [EGc]2 || z2 [EGc]2 z2 [DG=B]2 | z2 [EGc]2 z2 [EGc]2 | %4
[M:2/4] z2 [DG=B]2 |[M:4/4] z2 [EGc]2 !arpeggio![egc']4 | z2 [EGc]2 z2 [FBd]2 | %7
 z2 [GBe]2 z2 [EAc]2 |[M:2/4] z2 [DAB]2 |[M:4/4] z2 [EGB]2 !arpeggio![gbe']4 | z2 =B2 z2 c2 | %11
 c2 B2 c4 | c2 _A2 [=B,D^G]4 | z2 [=B,DG]2 z2 [Ec]2- | [Ec]4 [_Gc]4 | z2 [CFA]2 [=B,G]2 [=A,F]2 | %16
 z2 [CEG]2 !arpeggio![e'g'c'']2 z |] %17
V:3
 [C,G,]4 [C,G,]4 | [C,G,]4 [C,G,]4 || [C,G,]4 [C,G,]4 | [C,G,]4 E,4 |[M:2/4] G,4 |[M:4/4] [C,G,]8 | %6
 C4 B,4 | E4 A,2 F,2 |[M:2/4] B,4 |[M:4/4] [E,B,]8 | F4 E4 | D2 ^C2 =C2 ^F,2 | F,4 G,4 | %13
 [F,,F,]4 [E,,E,]4 | [A,,A,]4 [G,,G,]4 | [F,,F,]4 [G,,G,]4 | C,6 z |] %17
V:4
 x8 | x8 || x8 | x8 |[M:2/4] x4 |[M:4/4] x8 | x8 | x8 |[M:2/4] x4 |[M:4/4] x8 | x2 G2 x2 G2 | %11
 ^F2 =F2 =E4 | [C^G]4 x4 | x6 G2 | _G2 F2 =E2 _E2 | x4 D4 | x7 |] %17

